svgs/thin/paint-roller.svg

<svg xmlns="http://www.w3.org/2000/svg" viewBox="0 0 512 512"><!--! Font Awesome Pro 6.6.0 by @fontawesome - https://fontawesome.com License - https://fontawesome.com/license (Commercial License) Copyright 2024 Fonticons, Inc. --><path d="M352 16c26.5 0 48 21.5 48 48l0 32c0 26.5-21.5 48-48 48L64 144c-26.5 0-48-21.5-48-48l0-32c0-26.5 21.5-48 48-48l288 0zM64 0C28.7 0 0 28.7 0 64L0 96c0 35.3 28.7 64 64 64l288 0c35.3 0 64-28.7 64-64l0-8 0-16 0-8c0-35.3-28.7-64-64-64L64 0zM240 336c17.7 0 32 14.3 32 32l0 96c0 17.7-14.3 32-32 32l-32 0c-17.7 0-32-14.3-32-32l0-96c0-17.7 14.3-32 32-32l32 0zm-32-16c-26.5 0-48 21.5-48 48l0 96c0 26.5 21.5 48 48 48l32 0c26.5 0 48-21.5 48-48l0-96c0-26.5-21.5-48-48-48l-8 0 0-32c0-22.1 17.9-40 40-40l176 0c30.9 0 56-25.1 56-56l0-64c0-30.9-25.1-56-56-56l0 16c22.1 0 40 17.9 40 40l0 64c0 22.1-17.9 40-40 40l-176 0c-30.9 0-56 25.1-56 56l0 32-8 0z"/></svg>

<svg xmlns="http://www.w3.org/2000/svg" viewBox="0 0 512 512"><!--! Font Awesome Pro 6.5.2 by @fontawesome - https://fontawesome.com License - https://fontawesome.com/license (Commercial License) Copyright 2024 Fonticons, Inc. --><path d="M352 16c26.5 0 48 21.5 48 48V96c0 26.5-21.5 48-48 48H64c-26.5 0-48-21.5-48-48V64c0-26.5 21.5-48 48-48H352zM64 0C28.7 0 0 28.7 0 64V96c0 35.3 28.7 64 64 64H352c35.3 0 64-28.7 64-64V88 72 64c0-35.3-28.7-64-64-64H64zM240 336c17.7 0 32 14.3 32 32v96c0 17.7-14.3 32-32 32H208c-17.7 0-32-14.3-32-32V368c0-17.7 14.3-32 32-32h32zm-32-16c-26.5 0-48 21.5-48 48v96c0 26.5 21.5 48 48 48h32c26.5 0 48-21.5 48-48V368c0-26.5-21.5-48-48-48h-8V288c0-22.1 17.9-40 40-40H448c30.9 0 56-25.1 56-56V128c0-30.9-25.1-56-56-56V88c22.1 0 40 17.9 40 40v64c0 22.1-17.9 40-40 40H272c-30.9 0-56 25.1-56 56v32h-8z"/></svg>
